X:4995
T:Pantaloon Quadrille,aka. CJF.170
O:england
M:6/8
L:1/8
Q:120
S: C.J.Fox MS, 1829/33, Beverley,E.Yorks.
R:Quadrille
A:East Yorkshire
B:Kidson Coll.Mitchell Lib.M1805
N:Just "Quadrille" in MS, but Very like Pantaloon Quadrille from the
N:Thomas Hardy collection, - PJH.
K:D
d2d|{e}dcde2e|d3f2f|g2ge2e|a2fd2d|dcd f/e/d/e/f/e/|d3f2f|agf edc|d3||
a2a|gfef2f|e3d2e|d2e Bcd|cBAa2a|gfe g/f/^e/f/g/f/|e3dfd|cec BAB|A2"$"||
f2d|
Bcde2c|AcA FGA|Bcd {e}dcB|^A2Ff2e|dfgg2g|efg fge|dec Bc^A|" $ D Capo""G
3
||


